X: 43
T: VAN ROTTERAM OP DORT
B: "Old English Country Dances", Frank Kidson ed., William Reeves pub., London 1890
Z: 2010-9-26 John Chambers <jc:trillian.mit.edu>
M: C|
L: 1/8
K: Dm
A2 |\
d2e2 f2g2 | a2gf e2fg | a2e2 f2d2 | edcB A2A2 |\
d2e2 f2g2 | a2gf e2fg | f2ed ^cdec | d6 :|
|: AB |\
c2A2 B2G2 | AGAB A2AB | c2A2 B2G2 | A6 AB |\
c2A2 B2G2 | AGAB A2AB | c2A2 B2G2 | A4 A2 :|


%%sep 1 1 500

%%sep 1 1 500

